X:163
T:We're all right at Canterbury. JJo1.163
B:J.Johnson Choice Collection Vol 1 after c1750?
Z:vmp. Anne Wride 2015. www.village-music-project.org.uk
M:C|
L:1/8
Q:1/2=100
K:D
defd g2fe | defd ecBA | dfeg fafd | Adce d4 ?
|: faga bgfg | egfg afef | dfef gagf | edcB A2A2 |
defd g2fe | defd ecBA | dfeg fafd | Adce d4 ?
W:The 1st Cu. turns 3 with the 2d. Wo
W:The same to the Man
W:Cross over two Cu. lead up to the Top, foot it and cast off
W:Lead thro' the bottom Cu. cast up right hand and left with the Top

